storage/app/icons/simpleicons/brands/outline.svg

<svg xmlns="http://www.w3.org/2000/svg" viewBox="0 0 24 24"><title>Outline</title><path d="M15.081 21.857v.602a1.54 1.54 0 0 1-2.296 1.341l-9.242-5.198a1.54 1.54 0 0 1-.785-1.342V6.742c0-.557.3-1.07.785-1.343L12.785.201a1.54 1.54 0 0 1 2.296 1.343v.601l1.097-.331a1.54 1.54 0 0 1 1.984 1.476v.625l1.349-.169a1.54 1.54 0 0 1 1.731 1.529v13.451a1.54 1.54 0 0 1-1.731 1.528l-1.349-.169v.625a1.54 1.54 0 0 1-1.984 1.476zm0-1.608 1.54.461V3.29l-1.54.463zm3.081-14.782v13.067l1.54.192V5.275zM2.758 16.801V7.2zm1.54-10.059V17.26l9.242 5.199V1.544zm1.54 1.023 1.541-.77v10.01l-1.541-.77z"/></svg>

<svg role="img" viewBox="0 0 24 24" xmlns="http://www.w3.org/2000/svg"><title>Outline</title><path d="M 15.081 21.857 L 15.081 22.459 C 15.081 23.636 13.812 24.378 12.785 23.8 L 3.543 18.602 C 3.058 18.329 2.758 17.816 2.758 17.26 L 2.758 6.742 C 2.758 6.185 3.058 5.672 3.543 5.399 L 12.785 0.201 C 13.812 -0.378 15.082 0.365 15.081 1.544 L 15.081 2.145 L 16.178 1.814 C 17.167 1.517 18.163 2.258 18.162 3.29 L 18.162 3.915 L 19.511 3.746 C 20.431 3.632 21.243 4.348 21.242 5.275 L 21.242 18.726 C 21.243 19.652 20.431 20.37 19.511 20.254 L 18.162 20.085 L 18.162 20.71 C 18.163 21.743 17.167 22.484 16.178 22.186 L 15.081 21.857 Z M 15.081 20.249 L 16.621 20.71 L 16.621 3.29 L 15.081 3.753 L 15.081 20.249 Z M 18.162 5.467 L 18.162 18.534 L 19.702 18.726 L 19.702 5.275 L 18.162 5.467 Z M 2.758 16.801 L 2.758 7.2 L 2.758 16.801 Z M 4.298 6.742 L 4.298 17.26 L 13.54 22.459 L 13.54 1.544 L 4.298 6.742 Z M 5.838 7.765 L 7.379 6.995 L 7.379 17.005 L 5.838 16.235 L 5.838 7.765 Z"/></svg>
